images_sukapura_svg/cmd/lc_text.svg

<svg viewBox="0 0 24 24" xmlns="http://www.w3.org/2000/svg" xmlns:xlink="http://www.w3.org/1999/xlink"><linearGradient id="a" gradientUnits="userSpaceOnUse" x1="8.575722" x2="9.477251" xlink:href="#b" y1="15.115988" y2="4.060072"/><linearGradient id="b" gradientUnits="userSpaceOnUse" x1="-9.372881" x2="-9.429361" y1="21.671759" y2="19.027691"><stop offset="0" stop-color="#0040dd"/><stop offset="1" stop-color="#0a84ff"/></linearGradient><path d="m1.5 2.5h21v19h-21z" fill="#fff" stroke="#98989d" stroke-linecap="round" stroke-linejoin="round"/><path d="m10.884258 13.414991h-4.7235224l-.9882547 2.839138h-2.2026353l4.6062716-12.1940568h1.901134l4.6146468 12.1940568h-2.211011zm-4.1288946-1.708508h3.5342666l-1.7671333-5.0585237z" fill="url(#a)" stroke-width=".428802" transform="scale(1.0158831 .98436523)"/><g fill="#bababa"><rect height="1" ry=".5" width="6" x="15" y="14"/><rect height="1" ry=".5" width="6" x="15" y="10"/><rect height="1" ry=".5" width="6" x="15" y="6"/><rect height="1" ry=".5" width="18" x="3" y="18"/></g><ellipse cx="1.497184" cy="21.502267" fill="url(#b)"/></svg>

<?xml version="1.0" encoding="UTF-8" standalone="no"?>
<svg
   xmlns:dc="http://purl.org/dc/elements/1.1/"
   xmlns:cc="http://creativecommons.org/ns#"
   xmlns:rdf="http://www.w3.org/1999/02/22-rdf-syntax-ns#"
   xmlns:svg="http://www.w3.org/2000/svg"
   xmlns="http://www.w3.org/2000/svg"
   xmlns:xlink="http://www.w3.org/1999/xlink"
   xmlns:sodipodi="http://sodipodi.sourceforge.net/DTD/sodipodi-0.dtd"
   xmlns:inkscape="http://www.inkscape.org/namespaces/inkscape"
   viewBox="0 0 24 24"
   version="1.1"
   id="svg25"
   sodipodi:docname="lc_text.svg"
   inkscape:version="0.92.3 (2405546, 2018-03-11)"
   inkscape:export-filename="/home/rizmut/Dokumen/Rizmut/Github/libreoffice-style-sukapura/images_sukapura/cmd/lc_text.png"
   inkscape:export-xdpi="96"
   inkscape:export-ydpi="96">
  <metadata
     id="metadata31">
    <rdf:RDF>
      <cc:Work
         rdf:about="">
        <dc:format>image/svg+xml</dc:format>
        <dc:type
           rdf:resource="http://purl.org/dc/dcmitype/StillImage" />
      </cc:Work>
    </rdf:RDF>
  </metadata>
  <defs
     id="defs29">
    <linearGradient
       inkscape:collect="always"
       xlink:href="#a"
       id="linearGradient869"
       x1="8.5757217"
       y1="15.115988"
       x2="9.4772511"
       y2="4.0600724"
       gradientUnits="userSpaceOnUse" />
  </defs>
  <sodipodi:namedview
     pagecolor="#ffffff"
     bordercolor="#666666"
     borderopacity="1"
     objecttolerance="10"
     gridtolerance="10"
     guidetolerance="10"
     inkscape:pageopacity="0"
     inkscape:pageshadow="2"
     inkscape:window-width="1366"
     inkscape:window-height="714"
     id="namedview27"
     showgrid="false"
     inkscape:zoom="3.4766083"
     inkscape:cx="6.9583168"
     inkscape:cy="-12.394629"
     inkscape:window-x="0"
     inkscape:window-y="28"
     inkscape:window-maximized="1"
     inkscape:current-layer="svg25" />
  <linearGradient
     id="a"
     gradientUnits="userSpaceOnUse"
     x1="-9.372881"
     x2="-9.429361"
     y1="21.671759"
     y2="19.027691">
    <stop
       offset="0"
       stop-color="#0040dd"
       id="stop2" />
    <stop
       offset="1"
       stop-color="#0a84ff"
       id="stop4" />
  </linearGradient>
  <path
     d="m1.5 2.5h21v19h-21z"
     fill="#fff"
     stroke="#98989d"
     stroke-linecap="round"
     stroke-linejoin="round"
     id="path7" />
  <g
     aria-label="A"
     transform="scale(1.0158831 .98436523)"
     style="font-size:17.15208054px;font-family:sans-serif;letter-spacing:0;word-spacing:0;fill:#828282;stroke-width:0.42880201"
     id="text11">
    <path
       d="M 10.884258,13.414991 H 6.1607356 L 5.1724809,16.254129 H 2.9698456 L 7.5761172,4.0600722 h 1.901134 L 14.091898,16.254129 H 11.880887 Z M 6.7553634,11.706483 H 10.28963 L 8.5224967,6.6479593 Z"
       style="font-weight:500;font-family:Roboto;fill:url(#linearGradient869);stroke-width:0.42880201;fill-opacity:1"
       id="path838" />
  </g>
  <g
     fill="#bababa"
     id="g21">
    <rect
       height="1"
       ry=".5"
       width="6"
       x="15"
       y="14"
       id="rect13" />
    <rect
       height="1"
       ry=".5"
       width="6"
       x="15"
       y="10"
       id="rect15" />
    <rect
       height="1"
       ry=".5"
       width="6"
       x="15"
       y="6"
       id="rect17" />
    <rect
       height="1"
       ry=".5"
       width="18"
       x="3"
       y="18"
       id="rect19" />
  </g>
  <ellipse
     cx="1.497184"
     cy="21.502267"
     fill="url(#a)"
     id="ellipse23" />
</svg>
